X:14973
T:Schottisch 
S:collection Elisabeth und Christoph Huspeka
Z:abc transcription Simon Wascher
N:please mail errors to: simon.wascher@chello.at
M:2/4
L:1/16
K:G
GA|B2g2 c2e2|d2f2 gdBd|c2A2 ABcd|B2G2 GFGA|
B2d2 A2c2|G2B2 gdBd|1cBAG ABcd|B2d2B2:|2cBAG FGAB|G2B2G2||
|:Bc|d2G2 G2cd|e2A2 A2AG|FEFG AFGA|GFGA BGBc|
d2G2 G2cd|e2A2 A2AG|FEFG AFGA|G2B2G2:|


